!!!OTL: Dem J&auml;ger seine Lust (235), S. 507
!!!id: T0422
**kern
*clefG2
*k[f#]
*G:
{8g
=1
8g
4g
8g
4g
=2yy
8a
=3
4b
8b
8b
8b}
=4
{8cc
=5
4dd
8dd
8dd
8cc
8b
=6
4b
8a
4a}
8r
=7
{4g
8g
4g
8a
=8
4b
8b
8b
8b}
=9
{8cc
=10
4dd
8dd
8dd
8cc
8b
=11
4b
8a
4a}
=12
{8b
=13
4dd
8b
8dd
8dd
8ee
=14
4dd
8b
8a}
=15
{8b
8cc
=16
4dd
8cc
8b
8dd
8b
=17
4a
8f#
4d}
=18
{8d
=19
4g
8g
4a
8g
=20
8b
8dd
8b
8a
8b
8a}
=21
{4g
8g
8a
8g
8a
=22
8b
8cc
8b
8a
8g}
=23
{8a
=24
4b
8b
4cc
8ee
=25
4.dd
4cc}
=26
{8cc
=27
4b
8b
4a
8a
=28
2g}
4r
==
*-
!!!minrhy: 8
!!!meters: 6/8 ]  ZZ[10
!!!cut: Dem J&auml;ger seine Lust (235), S. 507
!!!reg: Luxemburg
!!!trd: Singendes Volk, Esch-Alzette, 1937 posth.
!!!rhy1:   X_XX_X  X_XXX
!!!rhy2: X  X_XXXX  X_XX_0
!!!key: T0422  08  G 6/8 ]  ZZ[10
!!!mod: HEPTATONIK IONISCH]  AMBITUS[9
!!!kad: 32322-52141
!!!akz: 1133_5532_1133_5532_5552_532-5_1232_1232_3454_3211_
!!!fot: 'a__b__a__b__bw_c__d__dv_ds'e__
!!!for: 'a__b__a__bv_bv_bv_c__d__e__aw_
!!!fok: '/__\__/__\__^d_^d_^a_^__^a_\__
!! PHRAS[VORWIEGEND AUFTAKTIG]
!!!fkt: J&auml;gerlied
!!!bem: Reuland, fff Petry, 7.9.1913
!! THILL; Mathias
!! PR[45] 2K[0] 2G[5] 3K[10] 3G[7] 4A[0] 4Ü[0] 5A[2] 6K[0] 6G[0]
!! 7K[0] 7G[0] 8A[0] MEHR[0] SI[24] ABS[42] SR[5] SP[19]
!! ST[12] 2k[5] 2g[19] 3k[0] 3g[0] 4d[5] 4ü[0] 5d[2] 6k[0] 6g[0]
!! 7k[0] 7g[0] 8d[0] mehr[0] si[31] dm[-7] sr[24] sp[7]
!! 1F[53] 2F[38] 3F[4] 4F[0] LF[0] 2P[4] 3P[0] 4P[0] TRI[0] DF[4] AB[45]
!! TF[0] U3K[0] U3[0] U4[0] U4Ü[0] U5[12] U6K[0] U6[23] U7K[0] U7[0]
!! N1[35] N2K[0] N2[12] N3K[0] N3[12] N4[5] N4Ü[0] N5[2] N6K[0] N6[0]
!!!n7k: 0] N7[0] O1[0] O2K[0] O2[0] O3K[0] O3[0] HÖ[0
!!!RNB: symbol: &auml;      = a umlaut  (UTF-8: Å„)
